icon-themes/breeze_svg/cmd/lc_sectionshrinktop.svg

<svg viewBox="0 0 24 24" xmlns="http://www.w3.org/2000/svg"><path d="m8 9v1h2v-1zm3 0v1h2v-1zm3 0v1h2v-1zm-8 2v2h1v-2zm11 0v2h1v-2zm-11 3v2h1v-2zm11 0v2h1v-2zm-13 3v3h3v-3zm4 0v1h2v-1zm3 0v1h2v-1zm3 0v1h2v-1zm3 0v3h3v-3zm-12 1h1v1h-1zm13 0h1v1h-1z" fill="#4d4d4d"/><path d="m4 7v3h3v-3zm13 0v3h3v-3zm-12 1h1v1h-1zm13 0h1v1h-1z" fill="#1d99f3"/></svg>

<svg xmlns="http://www.w3.org/2000/svg" viewBox="0 0 24 24">
 <path 
     style="fill:#4d4d4d" 
     d="M 8 9 L 8 10 L 10 10 L 10 9 L 8 9 z M 11 9 L 11 10 L 13 10 L 13 9 L 11 9 z M 14 9 L 14 10 L 16 10 L 16 9 L 14 9 z M 6 11 L 6 13 L 7 13 L 7 11 L 6 11 z M 17 11 L 17 13 L 18 13 L 18 11 L 17 11 z M 6 14 L 6 16 L 7 16 L 7 14 L 6 14 z M 17 14 L 17 16 L 18 16 L 18 14 L 17 14 z M 4 17 L 4 20 L 7 20 L 7 17 L 4 17 z M 8 17 L 8 18 L 10 18 L 10 17 L 8 17 z M 11 17 L 11 18 L 13 18 L 13 17 L 11 17 z M 14 17 L 14 18 L 16 18 L 16 17 L 14 17 z M 17 17 L 17 20 L 20 20 L 20 17 L 17 17 z M 5 18 L 6 18 L 6 19 L 5 19 L 5 18 z M 18 18 L 19 18 L 19 19 L 18 19 L 18 18 z "
     />
 <path 
     style="fill:#1d99f3" 
     d="M 4 7 L 4 10 L 7 10 L 7 7 L 4 7 z M 17 7 L 17 10 L 20 10 L 20 7 L 17 7 z M 5 8 L 6 8 L 6 9 L 5 9 L 5 8 z M 18 8 L 19 8 L 19 9 L 18 9 L 18 8 z "
     />
 </svg>
